packages/IcoMoon/src/CoinDollarIcon/index.svg

<svg version="1.1" xmlns="http://www.w3.org/2000/svg" width="16" height="16" viewBox="0 0 16 16">
<path d="M7.5 1c-4.142 0-7.5 3.358-7.5 7.5s3.358 7.5 7.5 7.5c4.142 0 7.5-3.358 7.5-7.5s-3.358-7.5-7.5-7.5zM7.5 14.5c-3.314 0-6-2.686-6-6s2.686-6 6-6c3.314 0 6 2.686 6 6s-2.686 6-6 6zM8 8v-2h2v-1h-2v-1h-1v1h-2v4h2v2h-2v1h2v1h1v-1h2l-0-4h-2zM7 8h-1v-2h1v2zM9 11h-1v-2h1v2z"></path>
</svg>

<svg xmlns="http://www.w3.org/2000/svg" viewBox="0 0 16 16">
  <path d="M7.5 1a7.5 7.5 0 100 15 7.5 7.5 0 000-15zm0 13.5a6 6 0 110-12 6 6 0 010 12zM8 8V6h2V5H8V4H7v1H5v4h2v2H5v1h2v1h1v-1h2V8H8zM7 8H6V6h1v2zm2 3H8V9h1v2z"/>
</svg>
